icons/op-file-bcf-16.svg

<svg width="16" height="16" viewBox="0 0 16 16" fill="none" xmlns="http://www.w3.org/2000/svg">
<path d="M8.66132 13.5C7.86312 13.5 7.37824 12.937 7.37824 12C7.37824 11.065 7.87245 10.5 8.6464 10.5C9.14993 10.5 9.5397 10.7413 9.72433 11.1595C9.76163 11.2359 9.78028 11.3143 9.78028 11.3867C9.78028 11.5456 9.68144 11.6481 9.53224 11.6481C9.40543 11.6481 9.32523 11.5878 9.26369 11.4471C9.14061 11.1515 8.92054 11.0027 8.65199 11.0027C8.22679 11.0027 7.95264 11.3867 7.95264 11.998C7.95264 12.6173 8.22306 12.9993 8.65386 12.9993C8.93733 12.9993 9.14993 12.8606 9.27115 12.569C9.32896 12.4323 9.39983 12.378 9.51919 12.378C9.67771 12.378 9.78214 12.4866 9.78214 12.6475C9.78214 12.7158 9.76722 12.7802 9.73925 12.8505C9.57141 13.2527 9.17044 13.5 8.66132 13.5Z" fill="#24292F"/>
<path fill-rule="evenodd" clip-rule="evenodd" d="M5.28161 13.4517C5.10444 13.4517 5 13.3351 5 13.134V10.866C5 10.6669 5.10444 10.5503 5.28161 10.5503H6.17118C6.67658 10.5503 6.99362 10.8298 6.99362 11.2741C6.99362 11.5918 6.77355 11.8572 6.48822 11.9035V11.9196C6.85375 11.9497 7.1223 12.2373 7.1223 12.6213C7.1223 13.132 6.76609 13.4517 6.19169 13.4517H5.28161ZM5.56321 11.7567H5.9679C6.26816 11.7567 6.43973 11.6139 6.43973 11.3686C6.43973 11.1354 6.28867 11.0027 6.02571 11.0027H5.56321V11.7567ZM5.56321 12.9993H6.04809C6.37259 12.9993 6.5479 12.8505 6.5479 12.5731C6.5479 12.3016 6.367 12.1568 6.03504 12.1568H5.56321V12.9993Z" fill="#24292F"/>
<path d="M10.2041 13.1743C10.2041 13.3733 10.3085 13.4899 10.4857 13.4899C10.6628 13.4899 10.7673 13.3733 10.7673 13.1743V12.3097H11.6531C11.8005 12.3097 11.8937 12.2192 11.8937 12.0684C11.8937 11.9196 11.7986 11.8291 11.6531 11.8291H10.7673V11.0529H11.7445C11.8974 11.0529 12 10.9584 12 10.8016C12 10.6448 11.8993 10.5503 11.7445 10.5503H10.4857C10.3085 10.5503 10.2041 10.6669 10.2041 10.866V13.1743Z" fill="#24292F"/>
<path fill-rule="evenodd" clip-rule="evenodd" d="M3.75 0C2.7835 0 2 0.783502 2 1.75V14.25C2 15.2165 2.7835 16 3.75 16H13.25C14.2165 16 15 15.2165 15 14.25V4.66421C15 4.20008 14.8156 3.75497 14.4874 3.42678L11.5732 0.512563C11.245 0.184374 10.7999 0 10.3358 0H3.75ZM3.5 1.75C3.5 1.61193 3.61193 1.5 3.75 1.5H10.3358C10.4021 1.5 10.4657 1.52634 10.5126 1.57322L13.4268 4.48744C13.4737 4.53432 13.5 4.59791 13.5 4.66421V14.25C13.5 14.3881 13.3881 14.5 13.25 14.5H3.75C3.61193 14.5 3.5 14.3881 3.5 14.25V1.75Z" fill="#24292F"/>
</svg>

<svg xmlns="http://www.w3.org/2000/svg" width="16" height="16" viewBox="0 0 16 16"><path d="M8.661 13.5c-.798 0-1.283-.563-1.283-1.5 0-.935.494-1.5 1.268-1.5.504 0 .894.241 1.078.659a.517.517 0 0 1 .056.228c0 .159-.099.261-.248.261-.127 0-.207-.06-.268-.201-.123-.295-.343-.444-.612-.444-.425 0-.699.384-.699.995 0 .619.27 1.001.701 1.001.283 0 .496-.138.617-.43.058-.137.129-.191.248-.191.159 0 .263.109.263.27a.54.54 0 0 1-.043.203c-.168.402-.569.649-1.078.649Zm-3.379-.048c-.178 0-.282-.117-.282-.318v-2.268c0-.199.104-.316.282-.316h.889c.506 0 .823.28.823.724 0 .318-.22.583-.506.629v.017a.68.68 0 0 1 .634.701c0 .511-.356.831-.93.831Zm.281-.453h.485c.325 0 .5-.148.5-.426 0-.271-.181-.416-.513-.416h-.472Zm0-1.242h.405c.3 0 .472-.143.472-.388 0-.234-.151-.366-.414-.366h-.463Zm4.641 1.417c0 .199.105.316.282.316s.281-.117.281-.316v-.864h.886c.147 0 .241-.091.241-.242 0-.148-.095-.239-.241-.239h-.886v-.776h.978c.152 0 .255-.095.255-.251 0-.157-.101-.252-.255-.252h-1.259c-.177 0-.282.117-.282.316v2.308Z"/><path d="M3.75 0h6.586c.464 0 .909.184 1.237.513l2.914 2.914c.329.328.513.773.513 1.237v9.586A1.75 1.75 0 0 1 13.25 16h-9.5A1.75 1.75 0 0 1 2 14.25V1.75C2 .784 2.783 0 3.75 0ZM3.5 1.75v12.5c0 .138.112.25.25.25h9.5a.25.25 0 0 0 .25-.25V4.664a.25.25 0 0 0-.073-.177l-2.914-2.914a.25.25 0 0 0-.177-.073H3.75a.25.25 0 0 0-.25.25Z"/></svg>
